icon-themes/sifr_svg/cmd/lc_togglegridhorizontal.svg

<svg viewBox="0 0 24 24" xmlns="http://www.w3.org/2000/svg"><g fill="#555753"><path d="m3 3v1h1v-1zm3 0v1h17v-1zm-3 3v1h1v-1zm3 0v1h7v-1zm11 0v1h6v-1zm-14 3v1h1v-1zm3 0v1h2v-1zm6 0v1h1v-1zm5 0v1h6v-1zm-14 3v1h1v-1zm3 0v1h2v-1zm6 0v1h1v-1zm5 0v1h1v-1zm5 0v1h1v-1zm-19 3v1h1v-1zm3 0v1h2v-1zm6 0v1h1v-1zm5 0v1h1v-1zm5 0v1h1v-1z"/><path d="m4 1v17h-2v2h2v2h2v-2h17v-2h-1v-6h-4v6h-1v-12h-4v12h-1v-9h-4v9h-2v-17z"/></g></svg>

<svg xmlns="http://www.w3.org/2000/svg" viewBox="0 0 24 24">
  <path
     style="fill:#555753"
     d="M 3 3 L 3 4 L 4 4 L 4 3 L 3 3 z M 6 3 L 6 4 L 23 4 L 23 3 L 6 3 z M 3 6 L 3 7 L 4 7 L 4 6 L 3 6 z M 6 6 L 6 7 L 13 7 L 13 6 L 6 6 z M 17 6 L 17 7 L 23 7 L 23 6 L 17 6 z M 3 9 L 3 10 L 4 10 L 4 9 L 3 9 z M 6 9 L 6 10 L 8 10 L 8 9 L 6 9 z M 12 9 L 12 10 L 13 10 L 13 9 L 12 9 z M 17 9 L 17 10 L 23 10 L 23 9 L 17 9 z M 3 12 L 3 13 L 4 13 L 4 12 L 3 12 z M 6 12 L 6 13 L 8 13 L 8 12 L 6 12 z M 12 12 L 12 13 L 13 13 L 13 12 L 12 12 z M 17 12 L 17 13 L 18 13 L 18 12 L 17 12 z M 22 12 L 22 13 L 23 13 L 23 12 L 22 12 z M 3 15 L 3 16 L 4 16 L 4 15 L 3 15 z M 6 15 L 6 16 L 8 16 L 8 15 L 6 15 z M 12 15 L 12 16 L 13 16 L 13 15 L 12 15 z M 17 15 L 17 16 L 18 16 L 18 15 L 17 15 z M 22 15 L 22 16 L 23 16 L 23 15 L 22 15 z "
     />
  <path
     style="fill:#555753"
     d="M 4,1 V 18 H 2 v 2 h 2 v 2 h 2 v -2 h 17 v -2 h -1 v -6 h -4 v 6 H 17 V 6 H 13 V 18 H 12 V 9 H 8 v 9 H 6 V 1 Z"
     />
</svg>
